svg/fluentui-system-icons/ic_fluent_plug_connected_24_filled.svg

<svg width="24" height="24" viewBox="0 0 24 24" fill="none" xmlns="http://www.w3.org/2000/svg">
<path d="M19.4898 5.57084C20.2796 6.58684 20.7499 7.8635 20.7499 9.25001C20.7499 11.5333 19.4745 13.5187 17.5972 14.5327C16.9481 14.8833 16.1671 14.6672 15.6454 14.1455L9.85438 8.35451C9.33268 7.8328 9.1166 7.05181 9.46723 6.40265C10.4812 4.52541 12.4666 3.25001 14.7499 3.25001C16.1364 3.25001 17.4132 3.72034 18.4292 4.51016L20.7197 2.21967C21.0126 1.92678 21.4874 1.92678 21.7803 2.21967C22.0732 2.51256 22.0732 2.98744 21.7803 3.28033L19.4898 5.57084ZM3.28033 21.7803L5.57072 19.4899C6.58673 20.2797 7.86339 20.75 9.24989 20.75C11.5332 20.75 13.5186 19.4746 14.5325 17.5973C14.8832 16.9482 14.6671 16.1672 14.1454 15.6455L8.35438 9.85448C7.83268 9.33278 7.05168 9.1167 6.40253 9.46733C4.52528 10.4813 3.24989 12.4667 3.24989 14.75C3.24989 16.1366 3.72022 17.4133 4.51005 18.4293L2.21967 20.7197C1.92678 21.0126 1.92678 21.4874 2.21967 21.7803C2.51256 22.0732 2.98744 22.0732 3.28033 21.7803Z" fill="#212121"/>
</svg>

<svg xmlns="http://www.w3.org/2000/svg" width="24" height="24"><path d="M19.49 5.57a5.999 5.999 0 0 1-1.893 8.962c-.649.351-1.43.135-1.952-.386l-5.79-5.791c-.522-.522-.738-1.303-.388-1.952A5.999 5.999 0 0 1 18.43 4.51l2.29-2.29a.75.75 0 1 1 1.061 1.06l-2.29 2.29ZM3.28 21.78l2.29-2.29a5.999 5.999 0 0 0 8.962-1.893c.351-.649.135-1.43-.387-1.952l-5.79-5.79c-.522-.522-1.303-.738-1.952-.388A5.999 5.999 0 0 0 4.51 18.43l-2.29 2.29a.75.75 0 1 0 1.06 1.061Z"/></svg>
